packages/icons/svg/24/HairEdit.svg

<svg width="24" height="24" viewBox="0 0 24 24" fill="none" xmlns="http://www.w3.org/2000/svg">
<path fill-rule="evenodd" clip-rule="evenodd" d="M3.15395 8.37587C4.42315 4.56826 7.98643 2 12 2C16.0136 2 19.5768 4.56826 20.8461 8.37587L20.9487 8.68377C20.9568 8.70805 20.9639 8.73264 20.9701 8.75746L20 9C20.9701 8.75746 20.9701 8.75734 20.9701 8.75746L20.9713 8.76195L20.9738 8.77223L20.983 8.80973C20.9908 8.84212 21.0021 8.88914 21.0164 8.94967C21.0449 9.07072 21.0851 9.24595 21.1333 9.46652C21.2295 9.90738 21.3573 10.5309 21.4852 11.2662C21.7395 12.7282 22 14.6673 22 16.5C22 18.4547 21.4369 19.787 20.8087 20.6507C20.4991 21.0765 20.1832 21.3752 19.9332 21.5731C19.8083 21.672 19.6996 21.7459 19.6159 21.7982C19.5741 21.8244 19.5384 21.8452 19.51 21.861C19.4957 21.869 19.4833 21.8757 19.4728 21.8812L19.4585 21.8887L19.4525 21.8918L19.4498 21.8932L19.4485 21.8938C19.4478 21.8941 19.4472 21.8944 19.0186 21.0372L19.4472 21.8944C18.9532 22.1414 18.3526 21.9412 18.1056 21.4472C17.8613 20.9586 18.0545 20.3655 18.5369 20.1137C18.5399 20.1119 18.5464 20.1082 18.5559 20.1022C18.5817 20.0861 18.6292 20.0545 18.6918 20.005C18.8168 19.9061 19.0009 19.736 19.1913 19.4743C19.5631 18.963 20 18.0453 20 16.5C20 14.8327 19.7605 13.0218 19.5148 11.6088C19.3927 10.9066 19.2705 10.3114 19.1792 9.89285C19.1336 9.68374 19.0958 9.51912 19.0696 9.40775C19.0565 9.35207 19.0463 9.30973 19.0395 9.28183L19.0385 9.27778L18.9487 9.00833C17.9517 6.0174 15.1527 4 12 4C8.84729 4 6.04829 6.0174 5.05132 9.00833L4.9615 9.27777L4.96051 9.28183C4.95373 9.30973 4.94355 9.35207 4.93045 9.40775C4.90424 9.51912 4.86639 9.68374 4.82077 9.89285C4.72945 10.3114 4.60734 10.9066 4.48521 11.6088C4.23948 13.0218 4 14.8327 4 16.5C4 18.0453 4.43689 18.963 4.80874 19.4743C4.99905 19.736 5.18322 19.9061 5.3082 20.005C5.37076 20.0545 5.41834 20.0861 5.44406 20.1022C5.45359 20.1082 5.46006 20.1119 5.46311 20.1137C5.94546 20.3655 6.13875 20.9586 5.89443 21.4472C5.64744 21.9412 5.04676 22.1414 4.55279 21.8944L5 21C4.55279 21.8944 4.55217 21.8941 4.55154 21.8938L4.55024 21.8932L4.54751 21.8918L4.54148 21.8887L4.52719 21.8812C4.5167 21.8757 4.50427 21.869 4.49004 21.861C4.4616 21.8452 4.42592 21.8244 4.38406 21.7982C4.30041 21.7459 4.19174 21.672 4.0668 21.5731C3.81678 21.3752 3.50095 21.0765 3.19126 20.6507C2.56311 19.787 2 18.4547 2 16.5C2 14.6673 2.26052 12.7282 2.51479 11.2662C2.64266 10.5309 2.77055 9.90738 2.86673 9.46652C2.91486 9.24595 2.95513 9.07072 2.98361 8.94967C2.99786 8.88914 3.00916 8.84212 3.01703 8.80973L3.0262 8.77223L3.02874 8.76195L3.0298 8.75771C3.02983 8.75758 3.02986 8.75746 4 9L3.0298 8.75771C3.036 8.73288 3.04322 8.70805 3.05132 8.68377L3.15395 8.37587Z" fill="#858585"/>
<path d="M13.5216 8.94401L12.6865 8.39396L13.5216 8.94401ZM6 15L5.68509 14.0509C5.27607 14.1866 5 14.5691 5 15H6ZM8.68377 21.9487C9.20772 22.1233 9.77404 21.8402 9.94868 21.3162C10.1233 20.7923 9.84017 20.226 9.31623 20.0513L8.68377 21.9487ZM15.3325 7.29251C15.4941 6.76438 15.1969 6.20529 14.6688 6.04374C14.1407 5.88219 13.5816 6.17936 13.42 6.70749L15.3325 7.29251ZM18 16H19C19 15.5251 18.666 15.1157 18.2008 15.0204L18 16ZM16.5605 12.5C16.5605 11.9477 16.1127 11.5 15.5605 11.5C15.0082 11.5 14.5605 11.9477 14.5605 12.5H16.5605ZM14.4453 20.1679C13.9858 20.4743 13.8616 21.0952 14.1679 21.5547C14.4743 22.0142 15.0952 22.1384 15.5547 21.8321L14.4453 20.1679ZM12.6865 8.39396C11.2849 10.5219 9.52325 11.943 8.10405 12.8334C7.39586 13.2778 6.77835 13.5866 6.34293 13.7825C6.12545 13.8804 5.95409 13.9498 5.84042 13.9936C5.78361 14.0155 5.74128 14.031 5.71489 14.0404C5.7017 14.0451 5.69249 14.0483 5.68746 14.05C5.68495 14.0509 5.68348 14.0514 5.68308 14.0515C5.68287 14.0516 5.68294 14.0516 5.68327 14.0515C5.68344 14.0514 5.68367 14.0513 5.68398 14.0512C5.68413 14.0512 5.68441 14.0511 5.68448 14.0511C5.68478 14.051 5.68509 14.0509 6 15C6.31491 15.9491 6.31526 15.949 6.31562 15.9489C6.31577 15.9488 6.31615 15.9487 6.31644 15.9486C6.31701 15.9484 6.31766 15.9482 6.31838 15.948C6.31981 15.9475 6.32152 15.9469 6.3235 15.9462C6.32747 15.9449 6.33253 15.9432 6.33866 15.9411C6.35092 15.9368 6.36747 15.9311 6.38812 15.9237C6.42942 15.9089 6.48715 15.8877 6.55982 15.8597C6.7051 15.8037 6.91039 15.7203 7.16362 15.6064C7.66964 15.3787 8.3699 15.0277 9.16702 14.5276C10.7584 13.529 12.7576 11.9221 14.3568 9.49406L12.6865 8.39396ZM5 15V16H7V15H5ZM5 16C5 18.2826 5.86798 19.7822 6.79289 20.7071C7.24583 21.16 7.69979 21.4633 8.04561 21.6554C8.21904 21.7518 8.36717 21.8212 8.47717 21.8684C8.53225 21.892 8.57802 21.9101 8.61291 21.9233C8.63036 21.9299 8.64512 21.9352 8.65698 21.9394C8.66292 21.9415 8.66813 21.9434 8.67261 21.9449C8.67484 21.9457 8.67689 21.9464 8.67875 21.947C8.67969 21.9473 8.68057 21.9476 8.68141 21.9479C8.68182 21.948 8.68242 21.9482 8.68262 21.9483C8.6832 21.9485 8.68377 21.9487 9 21C9.31623 20.0513 9.31677 20.0515 9.31731 20.0517C9.31747 20.0517 9.31799 20.0519 9.31832 20.052C9.31897 20.0522 9.31959 20.0524 9.32015 20.0526C9.32129 20.053 9.32225 20.0533 9.32305 20.0536C9.32463 20.0542 9.32555 20.0545 9.3258 20.0546C9.32632 20.0548 9.32423 20.054 9.31971 20.0523C9.31065 20.0489 9.29196 20.0416 9.26501 20.0301C9.21096 20.0069 9.12471 19.967 9.01689 19.9071C8.80021 19.7867 8.50417 19.59 8.20711 19.2929C7.63202 18.7178 7 17.7174 7 16H5ZM13.42 6.70749C13.2064 7.40592 12.9531 7.98924 12.6865 8.39396L14.3568 9.49406C14.7674 8.87059 15.0887 8.08964 15.3325 7.29251L13.42 6.70749ZM18 16C18.2008 15.0204 18.2013 15.0205 18.2019 15.0206C18.2021 15.0206 18.2026 15.0207 18.2029 15.0208C18.2036 15.021 18.2043 15.0211 18.2049 15.0212C18.2061 15.0215 18.2072 15.0217 18.2082 15.0219C18.2101 15.0223 18.2115 15.0226 18.2123 15.0228C18.214 15.0232 18.2137 15.0231 18.2114 15.0226C18.2069 15.0215 18.1948 15.0184 18.1762 15.0129C18.1388 15.002 18.0766 14.9819 17.9981 14.9497C17.8391 14.8846 17.6257 14.775 17.4142 14.6017C17.0223 14.2804 16.5605 13.6831 16.5605 12.5H14.5605C14.5605 14.3169 15.3184 15.4696 16.1462 16.1483C16.5447 16.475 16.9411 16.6779 17.2395 16.8003C17.3897 16.8618 17.5182 16.9043 17.6142 16.9324C17.6623 16.9465 17.7026 16.957 17.7338 16.9647C17.7494 16.9686 17.7627 16.9717 17.7737 16.9741C17.7792 16.9754 17.784 16.9764 17.7883 16.9773C17.7904 16.9778 17.7924 16.9782 17.7942 16.9786C17.7951 16.9788 17.796 16.979 17.7968 16.9791C17.7973 16.9792 17.7979 16.9794 17.7981 16.9794C17.7986 16.9795 17.7992 16.9796 18 16ZM17 16C17 17.1621 16.4152 18.1873 15.7407 18.9742C15.4103 19.3598 15.0778 19.6647 14.8286 19.8724C14.7046 19.9757 14.603 20.0535 14.5351 20.1036C14.5011 20.1287 14.4757 20.1467 14.4602 20.1576C14.4525 20.163 14.4473 20.1666 14.4447 20.1683C14.4434 20.1692 14.4428 20.1696 14.4429 20.1695C14.443 20.1695 14.4432 20.1694 14.4436 20.1691C14.4438 20.169 14.444 20.1688 14.4443 20.1686C14.4445 20.1685 14.4447 20.1684 14.4448 20.1683C14.445 20.1681 14.4453 20.1679 15 21C15.5547 21.8321 15.555 21.8319 15.5553 21.8317C15.5554 21.8316 15.5557 21.8314 15.556 21.8312C15.5564 21.8309 15.5569 21.8305 15.5575 21.8302C15.5586 21.8294 15.5599 21.8285 15.5614 21.8275C15.5644 21.8255 15.5681 21.823 15.5725 21.82C15.5813 21.814 15.5929 21.806 15.6072 21.796C15.6356 21.7761 15.6747 21.7483 15.7228 21.7128C15.8188 21.6419 15.9516 21.5399 16.1089 21.4088C16.4222 21.1478 16.8397 20.7652 17.2593 20.2758C18.0848 19.3127 19 17.8379 19 16H17Z" fill="#858585"/>
</svg>

<svg width="24" height="24" fill="none" xmlns="http://www.w3.org/2000/svg" viewBox="0 0 24 24"><path fill-rule="evenodd" clip-rule="evenodd" d="M3.154 8.376a9.325 9.325 0 0117.692 0l.103.308a.994.994 0 01.021.073L20 9l.97-.243.001.005.003.01.009.038a32.054 32.054 0 01.15.657c.097.44.224 1.064.352 1.8.255 1.461.515 3.4.515 5.233 0 1.955-.563 3.287-1.191 4.15-.31.427-.626.725-.876.923a3.515 3.515 0 01-.46.308l-.014.008-.006.003-.003.001h-.002l-.43-.856.43.857a1 1 0 01-.911-1.78l.019-.012c.026-.016.073-.047.136-.097.125-.099.309-.269.5-.53.371-.512.808-1.43.808-2.975 0-1.667-.24-3.478-.485-4.891a41.46 41.46 0 00-.476-2.327v-.004l-.09-.27a7.325 7.325 0 00-13.898 0l-.09.27v.004l-.03.126a41.486 41.486 0 00-.445 2.201C4.238 13.022 4 14.833 4 16.5c0 1.545.437 2.463.809 2.974a2.7 2.7 0 00.5.531c.062.05.11.081.135.097l.02.012a1 1 0 01-.911 1.78L5 21l-.448.894H4.55l-.002-.002-.007-.003-.014-.008a3.528 3.528 0 01-.46-.308 4.697 4.697 0 01-.876-.922C2.563 19.787 2 18.455 2 16.5c0-1.833.26-3.772.515-5.234a43.478 43.478 0 01.502-2.456l.01-.038.002-.01v-.004L4 9l-.97-.242a1 1 0 01.021-.074l.103-.308z" fill="currentColor"></path><path d="M13.522 8.944l-.835-.55.835.55zM6 15l-.315-.95A1 1 0 005 15h1zm2.684 6.949a1 1 0 00.632-1.898l-.632 1.898zm6.649-14.656a1 1 0 10-1.913-.586l1.912.586zM18 16h1a1 1 0 00-.8-.98L18 16zm-1.44-3.5a1 1 0 00-2 0h2zm-2.115 7.668a1 1 0 001.11 1.664l-1.11-1.664zM12.687 8.394c-1.402 2.128-3.164 3.549-4.583 4.44a14.68 14.68 0 01-1.761.949 9.977 9.977 0 01-.659.268L6 15c.315.95.315.949.316.949l.002-.001a1.557 1.557 0 00.02-.007l.05-.017c.041-.015.1-.036.172-.064.145-.056.35-.14.604-.254a16.695 16.695 0 002.003-1.078c1.591-.999 3.59-2.606 5.19-5.034l-1.67-1.1zM5 15v1h2v-1H5zm0 1c0 2.283.868 3.782 1.793 4.707.453.453.907.756 1.253.948a4.742 4.742 0 00.611.284l.016.006a.202.202 0 00.01.003L9 21c.316-.949.317-.948.317-.948h.003l.003.002h.003l-.006-.002a2.756 2.756 0 01-.303-.145 3.693 3.693 0 01-.81-.614C7.632 18.718 7 17.717 7 16H5zm8.42-9.293c-.214.699-.467 1.282-.733 1.687l1.67 1.1c.41-.623.732-1.404.976-2.201l-1.913-.586zM18 16c.2-.98.201-.98.202-.98l.003.001h.003a.14.14 0 01.004.002c.002 0 .002 0 0 0a1.82 1.82 0 01-.213-.073 2.315 2.315 0 01-.585-.348c-.392-.322-.854-.919-.854-2.102h-2c0 1.817.758 2.97 1.586 3.648a4.318 4.318 0 001.468.784 2.853 2.853 0 00.16.042l.014.003.006.002h.004L18 16zm-1 0c0 1.162-.585 2.187-1.26 2.974a7.751 7.751 0 01-1.205 1.13 3.918 3.918 0 01-.091.065c.001 0 .001-.001.556.831a134.835 134.835 0 00.556.831h.002a9.758 9.758 0 001.702-1.554c.825-.964 1.74-2.44 1.74-4.277h-2z" fill="currentColor"></path></svg>
